24x24/apps/distributor-logo-freebsd.svg

<svg xmlns="http://www.w3.org/2000/svg" width="24" height="24" version="1.1">
 <path style="opacity:0.2" d="M 6.1015625,2.5195312 C 5.634251,2.4770042 5.0608665,2.4754187 4.3769531,2.7148438 3.6915102,2.9548042 2.9513462,3.5297462 2.5488281,4.1679688 1.8021509,5.3524997 1.9739132,5.9496009 2.0097656,6.5117188 c 0.035874,0.5624541 0.1459241,1.0651572 0.3222656,1.5859374 0.2803573,0.8279742 0.6477406,1.5330944 1.0507813,2.2597658 0.046102,0.08312 0.1189812,0.157032 0.1601563,0.234375 C 3.2195808,11.52704 3.0022696,12.495281 3,13.494141 V 13.5 c 0,4.935029 4.0649712,9 9,9 4.935029,0 9,-4.064971 9,-9 v -0.002 c -5.87e-4,-1.001596 -0.217483,-1.972106 -0.541016,-2.910156 0.04181,-0.07837 0.115491,-0.152194 0.16211,-0.236328 0.401757,-0.7250607 0.767367,-1.4284419 1.046875,-2.2539068 0.176345,-0.5207907 0.286394,-1.0234866 0.322265,-1.5859374 0.03587,-0.5624509 0.209124,-1.159779 -0.539062,-2.3457032 C 21.048727,3.528116 20.308481,2.9548124 19.623047,2.7148438 18.939143,2.4754105 18.365741,2.477005 17.898438,2.5195312 h -0.0039 c -0.252835,0.023041 -0.548664,0.07204 -0.857422,0.1484376 -1.512701,0.3654091 -2.779327,1.0683393 -4.111328,1.9609374 -0.0081,0.00546 -0.02307,0.021975 -0.03125,0.027344 C 12.595386,4.6251198 12.311428,4.5009972 12.009766,4.5 c -0.0065,-2.12e-5 -0.01302,-2.12e-5 -0.01953,0 -0.301662,9.972e-4 -0.58562,0.1251198 -0.884765,0.15625 -0.0082,-0.00537 -0.0231,-0.021885 -0.03125,-0.027344 C 9.7422155,3.7363029 8.4755892,3.0333773 6.9628906,2.6679688 6.6542287,2.5915947 6.3584126,2.5425757 6.1054688,2.5195312 Z"/>
 <path style="fill:#fb5140" d="M 6.1015625,2.0195312 C 5.634251,1.9770042 5.0608665,1.9754187 4.3769531,2.2148438 3.6915102,2.4548042 2.9513462,3.0297462 2.5488281,3.6679688 1.8021509,4.8524997 1.9739132,5.4496009 2.0097656,6.0117188 2.0456395,6.5741729 2.1556897,7.076876 2.3320312,7.5976562 2.6123885,8.4256304 2.9797718,9.1307506 3.3828125,9.8574219 3.4289145,9.9405424 3.5017937,10.014454 3.5429688,10.091797 3.2195808,11.02704 3.0022696,11.995281 3,12.994141 V 13 c 0,4.935029 4.0649712,9 9,9 4.935029,0 9,-4.064971 9,-9 v -0.002 c -5.87e-4,-1.001596 -0.217483,-1.972106 -0.541016,-2.910156 0.04181,-0.07837 0.115491,-0.152194 0.16211,-0.2363285 0.401757,-0.7250602 0.767367,-1.4284414 1.046875,-2.2539063 0.176345,-0.5207907 0.286394,-1.0234866 0.322265,-1.5859374 0.03587,-0.5624509 0.209124,-1.159779 -0.539062,-2.3457032 C 21.048727,3.028116 20.308481,2.4548124 19.623047,2.2148438 18.939143,1.9754105 18.365741,1.977005 17.898438,2.0195312 h -0.0039 c -0.252835,0.023041 -0.548664,0.07204 -0.857422,0.1484376 -1.512701,0.3654091 -2.779327,1.0683393 -4.111328,1.9609374 -0.0081,0.00546 -0.02307,0.021975 -0.03125,0.027344 C 12.595386,4.1251198 12.311428,4.0009972 12.009766,4 c -0.0065,-2.12e-5 -0.01302,-2.12e-5 -0.01953,0 -0.301662,9.972e-4 -0.58562,0.1251198 -0.884765,0.15625 -0.0082,-0.00537 -0.0231,-0.021885 -0.03125,-0.027344 C 9.7422155,3.2363029 8.4755892,2.5333773 6.9628906,2.1679688 6.6542287,2.0915947 6.3584126,2.0425757 6.1054688,2.0195312 Z"/>
 <path style="opacity:0.2" d="M 5.8320312,5.5078125 C 5.4560704,5.4734188 5.2179942,5.5581923 5.0859375,5.7675781 4.9447721,5.9913261 4.9806187,6.5641704 5.1738281,7.1347656 5.375725,7.731024 5.8719704,8.6893222 6.3183594,9.4316406 7.068063,8.3887891 8.0923732,7.5548861 9.2890625,7.0488281 8.2198363,6.3472685 7.024705,5.7654916 6.2539062,5.5800781 6.0969237,5.540393 5.9573606,5.519151 5.8320312,5.5078125 Z m 12.3359378,0 C 18.042678,5.519151 17.903077,5.540393 17.746094,5.5800781 16.947914,5.772078 15.692757,6.3859379 14.595703,7.1210938 14.037358,7.4952669 13.999833,7.5446281 14,7.9238281 c 1.32e-4,0.2709921 0.02146,0.3608022 0.158203,0.6445313 0.378629,0.7852347 1.225129,1.5879276 1.949219,1.8476566 0.321222,0.115275 0.73255,0.111622 0.884766,-0.0078 0.382266,-0.299716 1.506171,-2.3053114 1.833984,-3.2734374 0.19321,-0.5705952 0.22905,-1.1434395 0.08789,-1.3671875 C 18.781963,5.5581933 18.54393,5.4734188 18.167969,5.5078125 Z M 12,7.5 a 6,6 0 0 0 -6,6 6,6 0 0 0 6,6 6,6 0 0 0 6,-6 6,6 0 0 0 -0.449219,-2.267578 C 17.167095,11.510222 16.890308,11.497721 16.621094,11.5 16.337639,11.5024 16.060783,11.46194 15.769531,11.357422 14.66246,10.960318 13.773877,10.07221 13.257812,9.0019531 13.103369,8.6814952 13.000158,8.2483134 13,7.9238281 c -3.5e-5,-0.079667 0.01756,-0.2069462 0.03516,-0.328125 A 6,6 0 0 0 12,7.5 Z"/>
 <path style="fill:#f4f4f7" d="M 5.8320312 5.0078125 C 5.4560704 4.9734188 5.2179942 5.0581923 5.0859375 5.2675781 C 4.9447721 5.4913261 4.9806187 6.0641704 5.1738281 6.6347656 C 5.375725 7.231024 5.8719704 8.1893222 6.3183594 8.9316406 C 7.068063 7.8887891 8.0923732 7.0548861 9.2890625 6.5488281 C 8.2198363 5.8472685 7.024705 5.2654916 6.2539062 5.0800781 C 6.0969237 5.040393 5.9573606 5.019151 5.8320312 5.0078125 z M 18.167969 5.0078125 C 18.042678 5.019151 17.903077 5.040393 17.746094 5.0800781 C 16.947914 5.272078 15.692757 5.8859379 14.595703 6.6210938 C 14.037358 6.9952669 13.999833 7.0446281 14 7.4238281 C 14.000132 7.6948202 14.021459 7.7846303 14.158203 8.0683594 C 14.536832 8.8535941 15.383332 9.6562865 16.107422 9.9160156 C 16.428644 10.031291 16.839972 10.027638 16.992188 9.9082031 C 17.374454 9.6084865 18.498359 7.6028916 18.826172 6.6347656 C 19.019382 6.0641704 19.055222 5.4913261 18.914062 5.2675781 C 18.781963 5.0581933 18.54393 4.9734188 18.167969 5.0078125 z M 12 7 A 6 6 0 0 0 6 13 A 6 6 0 0 0 12 19 A 6 6 0 0 0 18 13 A 6 6 0 0 0 17.550781 10.732422 C 17.167095 11.010222 16.890308 10.997721 16.621094 11 C 16.337639 11.002397 16.060783 10.961942 15.769531 10.857422 C 14.66246 10.460318 13.773877 9.5722103 13.257812 8.5019531 C 13.103369 8.1814952 13.000158 7.7483134 13 7.4238281 C 12.999965 7.3441609 13.017561 7.2168819 13.035156 7.0957031 A 6 6 0 0 0 12 7 z"/>
 <path style="opacity:0.2;fill:#f4f4f7" d="M 5.3203125 2.0117188 C 5.0330633 2.0359346 4.7189098 2.0951312 4.3769531 2.2148438 C 3.6915102 2.4548041 2.9513462 3.0297461 2.5488281 3.6679688 C 1.9404636 4.63308 1.9436159 5.2035031 1.984375 5.6875 C 2.0127021 5.2968911 2.1332034 4.827317 2.5488281 4.1679688 C 2.9513462 3.5297462 3.6915102 2.9548041 4.3769531 2.7148438 C 5.0608665 2.4754187 5.634251 2.4770043 6.1015625 2.5195312 L 6.1054688 2.5195312 C 6.3584125 2.5425757 6.6542287 2.5915946 6.9628906 2.6679688 C 8.4755892 3.0333772 9.7422132 3.7363032 11.074219 4.6289062 C 11.082369 4.6343653 11.097269 4.65088 11.105469 4.65625 C 11.404614 4.6251198 11.688572 4.5009972 11.990234 4.5 C 11.996744 4.4999788 12.003266 4.4999788 12.009766 4.5 C 12.311428 4.5009972 12.595379 4.6251196 12.894531 4.65625 C 12.902711 4.650881 12.917681 4.6343663 12.925781 4.6289062 C 14.257782 3.7363081 15.524408 3.0333778 17.037109 2.6679688 C 17.345867 2.5915712 17.641696 2.5425723 17.894531 2.5195312 L 17.898438 2.5195312 C 18.365741 2.4770051 18.939143 2.4754105 19.623047 2.7148438 C 20.308481 2.9548123 21.048727 3.528163 21.451172 4.1660156 C 21.862383 4.8178127 21.987261 5.2837454 22.017578 5.671875 C 22.057303 5.1909084 22.054062 4.6216357 21.451172 3.6660156 C 21.048727 3.028163 20.308481 2.4548123 19.623047 2.2148438 C 18.939143 1.9754104 18.365741 1.977005 17.898438 2.0195312 L 17.894531 2.0195312 C 17.641696 2.0425723 17.345867 2.0915712 17.037109 2.1679688 C 15.524408 2.5333778 14.257782 3.2363081 12.925781 4.1289062 C 12.917681 4.1343663 12.902711 4.150881 12.894531 4.15625 C 12.595379 4.1251196 12.311428 4.0009972 12.009766 4 C 12.003266 3.9999788 11.996744 3.9999788 11.990234 4 C 11.688572 4.0009972 11.404614 4.1251198 11.105469 4.15625 C 11.097269 4.15088 11.082369 4.1343653 11.074219 4.1289062 C 9.7422132 3.2363032 8.4755892 2.5333773 6.9628906 2.1679688 C 6.6542287 2.0915946 6.3584125 2.0425757 6.1054688 2.0195312 L 6.1015625 2.0195312 C 5.8679067 1.9982678 5.6075617 1.9875029 5.3203125 2.0117188 z M 20.566406 10.431641 C 20.527909 10.483816 20.486647 10.536038 20.458984 10.587891 C 20.755834 11.448575 20.953737 12.337677 20.986328 13.251953 C 20.988725 13.167455 21 13.085031 21 13 L 21 12.998047 C 20.999484 12.117898 20.826568 11.262848 20.566406 10.431641 z M 3.4355469 10.435547 C 3.1755382 11.264119 3.0019937 12.116701 3 12.994141 L 3 13 C 3 13.086346 3.0112002 13.170063 3.0136719 13.255859 C 3.0467939 12.341495 3.245472 11.452162 3.5429688 10.591797 C 3.5154654 10.540135 3.4739123 10.487914 3.4355469 10.435547 z"/>
</svg>

<svg xmlns="http://www.w3.org/2000/svg" width="24" height="24"><path style="opacity:.2" d="M6.102 2.52a3.93 3.93 0 0 0-1.725.195c-.685.24-1.426.815-1.828 1.453-.747 1.184-.575 1.782-.54 2.344.037.562.147 1.065.323 1.586.28.828.648 1.533 1.05 2.26.047.083.12.156.161.234-.323.935-.54 1.903-.543 2.902v.006c0 4.935 4.065 9 9 9s9-4.065 9-9v-.002c0-1.002-.217-1.972-.541-2.91.042-.079.115-.152.162-.236.402-.726.767-1.429 1.047-2.254.176-.521.286-1.024.322-1.586.036-.563.21-1.16-.539-2.346-.402-.638-1.143-1.211-1.828-1.451a3.93 3.93 0 0 0-1.725-.195h-.003a5.855 5.855 0 0 0-.858.148c-1.513.365-2.78 1.068-4.111 1.96-.008.006-.023.023-.031.028-.3-.03-.584-.155-.885-.156h-.02c-.301.001-.585.125-.885.156-.008-.005-.023-.022-.03-.027-1.333-.893-2.6-1.596-4.112-1.961a5.854 5.854 0 0 0-.858-.148z"/><path style="fill:#fb5140" d="M6.102 2.02a3.93 3.93 0 0 0-1.725.195c-.685.24-1.426.815-1.828 1.453-.747 1.184-.575 1.782-.54 2.344.037.562.147 1.065.323 1.586.28.828.648 1.533 1.05 2.26.047.083.12.156.161.234-.323.935-.54 1.903-.543 2.902V13c0 4.935 4.065 9 9 9s9-4.065 9-9v-.002c0-1.002-.217-1.972-.541-2.91.042-.079.115-.152.162-.236.402-.726.767-1.429 1.047-2.254.176-.521.286-1.024.322-1.586.036-.563.21-1.16-.539-2.346-.402-.638-1.143-1.211-1.828-1.451a3.93 3.93 0 0 0-1.725-.195h-.003a5.855 5.855 0 0 0-.858.148c-1.513.365-2.78 1.068-4.111 1.96-.008.006-.023.023-.031.028-.3-.03-.584-.155-.885-.156h-.02c-.301.001-.585.125-.885.156-.008-.005-.023-.022-.03-.027-1.333-.893-2.6-1.596-4.112-1.961a5.854 5.854 0 0 0-.858-.148z"/><path style="opacity:.2" d="M5.832 5.508c-.376-.035-.614.05-.746.26-.141.223-.105.796.088 1.367.202.596.698 1.554 1.144 2.297A7.053 7.053 0 0 1 9.29 7.049C8.22 6.347 7.025 5.765 6.254 5.58a2.696 2.696 0 0 0-.422-.072zm12.336 0a2.697 2.697 0 0 0-.422.072c-.798.192-2.053.806-3.15 1.541-.559.374-.596.424-.596.803 0 .27.021.36.158.644.379.786 1.225 1.588 1.95 1.848.32.115.732.112.884-.008.382-.3 1.506-2.305 1.834-3.273.193-.57.23-1.144.088-1.367-.132-.21-.37-.295-.746-.26zM12 7.5a6 6 0 0 0-6 6 6 6 0 0 0 6 6 6 6 0 0 0 6-6 6 6 0 0 0-.45-2.268c-.383.278-.66.266-.929.268a2.404 2.404 0 0 1-.851-.143c-1.108-.397-1.996-1.285-2.512-2.355A2.74 2.74 0 0 1 13 7.924c0-.08.018-.207.035-.328A6 6 0 0 0 12 7.5z"/><path style="fill:#f4f4f7" d="M5.832 5.008c-.376-.035-.614.05-.746.26-.141.223-.105.796.088 1.367.202.596.698 1.554 1.144 2.297A7.053 7.053 0 0 1 9.29 6.549C8.22 5.847 7.025 5.265 6.254 5.08a2.696 2.696 0 0 0-.422-.072zm12.336 0a2.697 2.697 0 0 0-.422.072c-.798.192-2.053.806-3.15 1.541-.559.374-.596.424-.596.803 0 .27.021.36.158.644.379.786 1.225 1.588 1.95 1.848.32.115.732.112.884-.008.382-.3 1.506-2.305 1.834-3.273.193-.57.23-1.144.088-1.367-.132-.21-.37-.295-.746-.26zM12 7a6 6 0 0 0-6 6 6 6 0 0 0 6 6 6 6 0 0 0 6-6 6 6 0 0 0-.45-2.268c-.383.278-.66.266-.929.268a2.404 2.404 0 0 1-.851-.143c-1.108-.397-1.996-1.285-2.512-2.355A2.74 2.74 0 0 1 13 7.424c0-.08.018-.207.035-.328A6 6 0 0 0 12 7z"/><path style="opacity:.2;fill:#f4f4f7" d="M5.32 2.012a3.796 3.796 0 0 0-.943.203c-.685.24-1.426.815-1.828 1.453-.609.965-.605 1.536-.565 2.02.029-.391.15-.86.565-1.52.402-.638 1.143-1.213 1.828-1.453a3.93 3.93 0 0 1 1.725-.195h.003c.253.023.55.072.858.148 1.513.365 2.78 1.068 4.111 1.96.008.006.023.023.031.028.3-.03.584-.155.885-.156a3 3 0 0 1 .02 0c.301.001.585.125.885.156.008-.005.023-.022.03-.027 1.333-.893 2.6-1.596 4.112-1.961.309-.076.605-.125.858-.148h.003a3.93 3.93 0 0 1 1.725.195c.685.24 1.426.813 1.828 1.451.411.652.536 1.118.567 1.506.04-.481.036-1.05-.567-2.006-.402-.638-1.143-1.211-1.828-1.451a3.93 3.93 0 0 0-1.725-.195h-.003a5.855 5.855 0 0 0-.858.148c-1.513.365-2.78 1.068-4.111 1.96-.008.006-.023.023-.031.028-.3-.03-.584-.155-.885-.156a3 3 0 0 0-.02 0c-.301.001-.585.125-.885.156-.008-.005-.023-.022-.03-.027-1.333-.893-2.6-1.596-4.112-1.961a5.854 5.854 0 0 0-.858-.148h-.003a4.42 4.42 0 0 0-.782-.008zm15.246 8.42c-.038.052-.08.104-.107.156.297.86.495 1.75.527 2.664.003-.085.014-.167.014-.252v-.002c0-.88-.173-1.735-.434-2.566zm-17.13.004c-.26.828-.434 1.68-.436 2.558V13c0 .086.011.17.014.256.033-.915.231-1.804.529-2.664-.028-.052-.07-.104-.107-.156z"/></svg>
